src/svg/uf183-male.svg

<!-- Generated by IcoMoon.io -->
<svg version="1.1" xmlns="http://www.w3.org/2000/svg" width="18" height="32" viewBox="0 0 18 32">
<path d="M18.286 12.571v7.429c0 0.946-0.768 1.714-1.714 1.714s-1.714-0.768-1.714-1.714v-6.286h-1.143v16.286c0 1.107-0.893 2-2 2s-2-0.893-2-2v-8.286h-1.143v8.286c0 1.107-0.893 2-2 2s-2-0.893-2-2v-16.286h-1.143v6.286c0 0.946-0.768 1.714-1.714 1.714s-1.714-0.768-1.714-1.714v-7.429c0-1.893 1.536-3.429 3.429-3.429h11.429c1.893 0 3.429 1.536 3.429 3.429zM13.143 4.571c0 2.214-1.786 4-4 4s-4-1.786-4-4 1.786-4 4-4 4 1.786 4 4z"></path>
</svg>

<svg xmlns="http://www.w3.org/2000/svg" width="18" height="32"><path d="M18.286 12.571V20a1.715 1.715 0 0 1-3.428 0v-6.286h-1.143V30c0 1.107-.893 2-2 2s-2-.893-2-2v-8.286H8.572V30c0 1.107-.893 2-2 2s-2-.893-2-2V13.714H3.429V20a1.715 1.715 0 0 1-3.428 0v-7.429A3.43 3.43 0 0 1 3.43 9.142h11.429a3.43 3.43 0 0 1 3.429 3.429zm-5.143-8c0 2.214-1.786 4-4 4s-4-1.786-4-4 1.786-4 4-4 4 1.786 4 4z"/></svg>
